assets/1. F-P/Left arrow/Color/Left.Arrow-color.svg

<svg width="100%" height="100%" viewBox="0 0 32 32" fill="none" xmlns="http://www.w3.org/2000/svg">
<g filter="url(#filter0_ii_18590_778)">
<rect x="2.0658" y="2.3125" width="27.875" height="27.875" rx="3.6" fill="url(#paint0_linear_18590_778)"/>
<rect x="2.0658" y="2.3125" width="27.875" height="27.875" rx="3.6" fill="url(#paint1_radial_18590_778)"/>
</g>
<g filter="url(#filter1_f_18590_778)">
<path d="M28.2533 4.8125V27.6875" stroke="url(#paint2_linear_18590_778)" stroke-width="1.5" stroke-linecap="round"/>
</g>
<g filter="url(#filter2_f_18590_778)">
<path d="M5.52966 4.125H27.3109" stroke="url(#paint3_linear_18590_778)" stroke-width="1.5" stroke-linecap="round"/>
</g>
<g filter="url(#filter3_f_18590_778)">
<path d="M7.22303 15.5566C6.85046 15.9438 6.85046 16.5562 7.22303 16.9433L12.3352 22.2561C12.9594 22.9048 14.0558 22.463 14.0558 21.5627V18.5C14.0558 18.3619 14.1678 18.25 14.3058 18.25L24.0558 18.25C24.6081 18.25 25.0558 17.8023 25.0558 17.25V15.25C25.0558 14.6977 24.6081 14.25 24.0558 14.25L14.3058 14.25C14.1678 14.25 14.0558 14.138 14.0558 14L14.0558 10.9372C14.0558 10.037 12.9594 9.59515 12.3352 10.2438L7.22303 15.5566Z" fill="#579FFF"/>
</g>
<g filter="url(#filter4_ii_18590_778)">
<path d="M7.22303 15.5566C6.85046 15.9438 6.85046 16.5562 7.22303 16.9433L12.3352 22.2561C12.9594 22.9048 14.0558 22.463 14.0558 21.5627V18.5C14.0558 18.3619 14.1678 18.25 14.3058 18.25L24.0558 18.25C24.6081 18.25 25.0558 17.8023 25.0558 17.25V15.25C25.0558 14.6977 24.6081 14.25 24.0558 14.25L14.3058 14.25C14.1678 14.25 14.0558 14.138 14.0558 14L14.0558 10.9372C14.0558 10.037 12.9594 9.59515 12.3352 10.2438L7.22303 15.5566Z" fill="#FCF2FF"/>
</g>
<defs>
<filter id="filter0_ii_18590_778" x="2.0658" y="1.3125" width="28.875" height="28.875" filterUnits="userSpaceOnUse" color-interpolation-filters="sRGB">
<feFlood flood-opacity="0" result="BackgroundImageFix"/>
<feBlend mode="normal" in="SourceGraphic" in2="BackgroundImageFix" result="shape"/>
<feColorMatrix in="SourceAlpha" type="matrix" values="0 0 0 0 0 0 0 0 0 0 0 0 0 0 0 0 0 0 127 0" result="hardAlpha"/>
<feOffset dx="1" dy="-1"/>
<feGaussianBlur stdDeviation="1.5"/>
<feComposite in2="hardAlpha" operator="arithmetic" k2="-1" k3="1"/>
<feColorMatrix type="matrix" values="0 0 0 0 0.188235 0 0 0 0 0.470588 0 0 0 0 0.843137 0 0 0 1 0"/>
<feBlend mode="normal" in2="shape" result="effect1_innerShadow_18590_778"/>
<feColorMatrix in="SourceAlpha" type="matrix" values="0 0 0 0 0 0 0 0 0 0 0 0 0 0 0 0 0 0 127 0" result="hardAlpha"/>
<feOffset dy="-1"/>
<feGaussianBlur stdDeviation="1.5"/>
<feComposite in2="hardAlpha" operator="arithmetic" k2="-1" k3="1"/>
<feColorMatrix type="matrix" values="0 0 0 0 0.27451 0 0 0 0 0.34902 0 0 0 0 0.8 0 0 0 1 0"/>
<feBlend mode="normal" in2="effect1_innerShadow_18590_778" result="effect2_innerShadow_18590_778"/>
</filter>
<filter id="filter1_f_18590_778" x="25.5033" y="2.0625" width="5.5" height="28.375" filterUnits="userSpaceOnUse" color-interpolation-filters="sRGB">
<feFlood flood-opacity="0" result="BackgroundImageFix"/>
<feBlend mode="normal" in="SourceGraphic" in2="BackgroundImageFix" result="shape"/>
<feGaussianBlur stdDeviation="1" result="effect1_foregroundBlur_18590_778"/>
</filter>
<filter id="filter2_f_18590_778" x="2.77966" y="1.375" width="27.2812" height="5.5" filterUnits="userSpaceOnUse" color-interpolation-filters="sRGB">
<feFlood flood-opacity="0" result="BackgroundImageFix"/>
<feBlend mode="normal" in="SourceGraphic" in2="BackgroundImageFix" result="shape"/>
<feGaussianBlur stdDeviation="1" result="effect1_foregroundBlur_18590_778"/>
</filter>
<filter id="filter3_f_18590_778" x="5.9436" y="8.93518" width="20.1122" height="14.6295" filterUnits="userSpaceOnUse" color-interpolation-filters="sRGB">
<feFlood flood-opacity="0" result="BackgroundImageFix"/>
<feBlend mode="normal" in="SourceGraphic" in2="BackgroundImageFix" result="shape"/>
<feGaussianBlur stdDeviation="0.5" result="effect1_foregroundBlur_18590_778"/>
</filter>
<filter id="filter4_ii_18590_778" x="6.3436" y="9.53518" width="19.1122" height="13.6295" filterUnits="userSpaceOnUse" color-interpolation-filters="sRGB">
<feFlood flood-opacity="0" result="BackgroundImageFix"/>
<feBlend mode="normal" in="SourceGraphic" in2="BackgroundImageFix" result="shape"/>
<feColorMatrix in="SourceAlpha" type="matrix" values="0 0 0 0 0 0 0 0 0 0 0 0 0 0 0 0 0 0 127 0" result="hardAlpha"/>
<feOffset dx="-0.6" dy="0.6"/>
<feGaussianBlur stdDeviation="0.5"/>
<feComposite in2="hardAlpha" operator="arithmetic" k2="-1" k3="1"/>
<feColorMatrix type="matrix" values="0 0 0 0 0.866667 0 0 0 0 0.819608 0 0 0 0 0.941176 0 0 0 1 0"/>
<feBlend mode="normal" in2="shape" result="effect1_innerShadow_18590_778"/>
<feColorMatrix in="SourceAlpha" type="matrix" values="0 0 0 0 0 0 0 0 0 0 0 0 0 0 0 0 0 0 127 0" result="hardAlpha"/>
<feOffset dx="0.4" dy="-0.4"/>
<feGaussianBlur stdDeviation="0.5"/>
<feComposite in2="hardAlpha" operator="arithmetic" k2="-1" k3="1"/>
<feColorMatrix type="matrix" values="0 0 0 0 1 0 0 0 0 0.988235 0 0 0 0 1 0 0 0 1 0"/>
<feBlend mode="normal" in2="effect1_innerShadow_18590_778" result="effect2_innerShadow_18590_778"/>
</filter>
<linearGradient id="paint0_linear_18590_778" x1="16.0033" y1="5.88701" x2="16.0033" y2="39.1397" gradientUnits="userSpaceOnUse">
<stop stop-color="#5CB7FF"/>
<stop offset="1" stop-color="#4878DD"/>
</linearGradient>
<radialGradient id="paint1_radial_18590_778" cx="0" cy="0" r="1" gradientUnits="userSpaceOnUse" gradientTransform="translate(27.722 4.40625) rotate(136.771) scale(2.14444 2.50466)">
<stop stop-color="#7BD7FF"/>
<stop offset="1" stop-color="#7BD7FF" stop-opacity="0"/>
</radialGradient>
<linearGradient id="paint2_linear_18590_778" x1="28.7533" y1="4.8125" x2="28.7533" y2="27.6875" gradientUnits="userSpaceOnUse">
<stop stop-color="#7FD9FF"/>
<stop offset="1" stop-color="#639DF4"/>
</linearGradient>
<linearGradient id="paint3_linear_18590_778" x1="28.4672" y1="4.37502" x2="2.93591" y2="4.37502" gradientUnits="userSpaceOnUse">
<stop stop-color="#7DD8FF"/>
<stop offset="1" stop-color="#5DB6FF"/>
</linearGradient>
</defs>
</svg>

<svg width="100%" height="100%" viewBox="0 0 32 32" xmlns="http://www.w3.org/2000/svg"><g filter="url(#a)"><rect width="27.875" height="27.875" x="2.066" y="2.313" fill="url(#b)" rx="3.6"/><rect width="27.875" height="27.875" x="2.066" y="2.313" fill="url(#c)" rx="3.6"/></g><g filter="url(#d)"><path stroke="url(#e)" stroke-linecap="round" stroke-width="1.5" d="M28.253 4.813v22.875"/></g><g filter="url(#f)"><path stroke="url(#g)" stroke-linecap="round" stroke-width="1.5" d="M5.53 4.125h21.78"/></g><g filter="url(#h)"><path fill="#579FFF" d="M7.223 15.557a1 1 0 0 0 0 1.386l5.112 5.313c.624.649 1.72.207 1.72-.693V18.5a.25.25 0 0 1 .25-.25h9.75a1 1 0 0 0 1-1v-2a1 1 0 0 0-1-1h-9.75a.25.25 0 0 1-.25-.25v-3.063c0-.9-1.096-1.342-1.72-.693z"/></g><g filter="url(#i)"><path fill="#FCF2FF" d="M7.223 15.557a1 1 0 0 0 0 1.386l5.112 5.313c.624.649 1.72.207 1.72-.693V18.5a.25.25 0 0 1 .25-.25h9.75a1 1 0 0 0 1-1v-2a1 1 0 0 0-1-1h-9.75a.25.25 0 0 1-.25-.25v-3.063c0-.9-1.096-1.342-1.72-.693z"/></g><defs><filter id="a" width="28.875" height="28.875" x="2.066" y="1.313" color-interpolation-filters="sRGB" filterUnits="userSpaceOnUse"><feFlood flood-opacity="0" result="BackgroundImageFix"/><feBlend in="SourceGraphic" in2="BackgroundImageFix" result="shape"/><feColorMatrix in="SourceAlpha" result="hardAlpha" values="0 0 0 0 0 0 0 0 0 0 0 0 0 0 0 0 0 0 127 0"/><feOffset dx="1" dy="-1"/><feGaussianBlur stdDeviation="1.5"/><feComposite in2="hardAlpha" k2="-1" k3="1" operator="arithmetic"/><feColorMatrix values="0 0 0 0 0.188235 0 0 0 0 0.470588 0 0 0 0 0.843137 0 0 0 1 0"/><feBlend in2="shape" result="effect1_innerShadow_18590_778"/><feColorMatrix in="SourceAlpha" result="hardAlpha" values="0 0 0 0 0 0 0 0 0 0 0 0 0 0 0 0 0 0 127 0"/><feOffset dy="-1"/><feGaussianBlur stdDeviation="1.5"/><feComposite in2="hardAlpha" k2="-1" k3="1" operator="arithmetic"/><feColorMatrix values="0 0 0 0 0.27451 0 0 0 0 0.34902 0 0 0 0 0.8 0 0 0 1 0"/><feBlend in2="effect1_innerShadow_18590_778" result="effect2_innerShadow_18590_778"/></filter><filter id="d" width="5.5" height="28.375" x="25.503" y="2.063" color-interpolation-filters="sRGB" filterUnits="userSpaceOnUse"><feFlood flood-opacity="0" result="BackgroundImageFix"/><feBlend in="SourceGraphic" in2="BackgroundImageFix" result="shape"/><feGaussianBlur result="effect1_foregroundBlur_18590_778" stdDeviation="1"/></filter><filter id="f" width="27.281" height="5.5" x="2.78" y="1.375" color-interpolation-filters="sRGB" filterUnits="userSpaceOnUse"><feFlood flood-opacity="0" result="BackgroundImageFix"/><feBlend in="SourceGraphic" in2="BackgroundImageFix" result="shape"/><feGaussianBlur result="effect1_foregroundBlur_18590_778" stdDeviation="1"/></filter><filter id="h" width="20.112" height="14.63" x="5.944" y="8.935" color-interpolation-filters="sRGB" filterUnits="userSpaceOnUse"><feFlood flood-opacity="0" result="BackgroundImageFix"/><feBlend in="SourceGraphic" in2="BackgroundImageFix" result="shape"/><feGaussianBlur result="effect1_foregroundBlur_18590_778" stdDeviation=".5"/></filter><filter id="i" width="19.112" height="13.63" x="6.344" y="9.535" color-interpolation-filters="sRGB" filterUnits="userSpaceOnUse"><feFlood flood-opacity="0" result="BackgroundImageFix"/><feBlend in="SourceGraphic" in2="BackgroundImageFix" result="shape"/><feColorMatrix in="SourceAlpha" result="hardAlpha" values="0 0 0 0 0 0 0 0 0 0 0 0 0 0 0 0 0 0 127 0"/><feOffset dx="-.6" dy=".6"/><feGaussianBlur stdDeviation=".5"/><feComposite in2="hardAlpha" k2="-1" k3="1" operator="arithmetic"/><feColorMatrix values="0 0 0 0 0.866667 0 0 0 0 0.819608 0 0 0 0 0.941176 0 0 0 1 0"/><feBlend in2="shape" result="effect1_innerShadow_18590_778"/><feColorMatrix in="SourceAlpha" result="hardAlpha" values="0 0 0 0 0 0 0 0 0 0 0 0 0 0 0 0 0 0 127 0"/><feOffset dx=".4" dy="-.4"/><feGaussianBlur stdDeviation=".5"/><feComposite in2="hardAlpha" k2="-1" k3="1" operator="arithmetic"/><feColorMatrix values="0 0 0 0 1 0 0 0 0 0.988235 0 0 0 0 1 0 0 0 1 0"/><feBlend in2="effect1_innerShadow_18590_778" result="effect2_innerShadow_18590_778"/></filter><linearGradient id="b" x1="16.003" x2="16.003" y1="5.887" y2="39.14" gradientUnits="userSpaceOnUse"><stop stop-color="#5CB7FF"/><stop offset="1" stop-color="#4878DD"/></linearGradient><linearGradient id="e" x1="28.753" x2="28.753" y1="4.813" y2="27.688" gradientUnits="userSpaceOnUse"><stop stop-color="#7FD9FF"/><stop offset="1" stop-color="#639DF4"/></linearGradient><linearGradient id="g" x1="28.467" x2="2.936" y1="4.375" y2="4.375" gradientUnits="userSpaceOnUse"><stop stop-color="#7DD8FF"/><stop offset="1" stop-color="#5DB6FF"/></linearGradient><radialGradient id="c" cx="0" cy="0" r="1" gradientTransform="matrix(-1.56249 1.46876 -1.71548 -1.82495 27.722 4.406)" gradientUnits="userSpaceOnUse"><stop stop-color="#7BD7FF"/><stop offset="1" stop-color="#7BD7FF" stop-opacity="0"/></radialGradient></defs></svg>
